icons/misc/lock-closed.svg

<?xml version="1.0" encoding="UTF-8"?><svg id="Ebene_2" xmlns="http://www.w3.org/2000/svg" viewBox="0 0 13.1 16"><defs><style>.cls-1{fill:#9d9d9e;}</style></defs><g id="Ebene_1-2"><g id="Ebene_2-2"><g id="Icons"><path class="cls-1" d="M11.64,5.82h-.36v-1.09C11.28,2.118,9.162,0,6.55,0S1.82,2.118,1.82,4.73v1.09h-.36c-.802,0-1.455,.648-1.46,1.45v7.28c.005,.802,.658,1.45,1.46,1.45H11.64c.802,0,1.455-.648,1.46-1.45V7.27c-.005-.802-.658-1.45-1.46-1.45Zm-4.4,5.18h0v2.83h-1.38v-2.83c-.918-.381-1.354-1.434-.972-2.352,.381-.918,1.434-1.354,2.352-.972,.918,.381,1.354,1.434,.972,2.352-.183,.44-.532,.79-.972,.972Zm1.86-5.17H4v-1.1c0-1.408,1.143-2.55,2.551-2.549,1.408,0,2.548,1.141,2.549,2.549v1.1Z"/></g></g></g></svg>

<svg xmlns="http://www.w3.org/2000/svg" viewBox="0 0 13.1 16"><path d="M11.64 5.82h-.36V4.73a4.73 4.73 0 0 0-9.46 0v1.09h-.36A1.46 1.46 0 0 0 0 7.27v7.28A1.46 1.46 0 0 0 1.46 16h10.18a1.46 1.46 0 0 0 1.46-1.45V7.27a1.46 1.46 0 0 0-1.46-1.45ZM7.24 11v2.83H5.86V11a1.799 1.799 0 1 1 1.38-3.324 1.799 1.799 0 0 1 0 3.324ZM9.1 5.83H4v-1.1a2.55 2.55 0 0 1 5.1 0v1.1Z" style="fill:#9d9d9e"/></svg>
